X:1
T:Ave Maria - Fux
T:#
%%score [ 1 2 3 4 ]
L:1/8
Q:1/4=150
M:none
K:C
V:1 treble nm="Soprano" snm="S"
V:2 treble nm="Alto" snm="A"
V:3 treble-8 nm="Tenor" snm="T"
V:4 bass nm="Bass" snm="B"
V:1
"^Offertory for Advent IV""^Ave Maria""^Johann Joseph Fux\n (1660-1741)" z16 | z16 | z16 | z16 | %4
w: ||||
 z16 | z8 (G8- | A8 (A8 | c8 A8 | B8 G8) | A8 c8) | (A8 G8) | A16 | z16 | z16 | (A8 B8) | G8 A8 | %16
w: |A\-|* ve|||Ma\- *|ri\- *|a,|||gra\- *|ti- a|
 (d8 c8 | A8 G8) | A16 | z16 | z16 | (d8 c8 | A8 c6) c2 | c8 (c8 | B8 A8 | B8) (B8 | A16) | z16 | %28
w: ple\- *||na:|||Do\- *|* * mi-|nus te\-||* cum:|||
 z16 | z8 (A8 | c8 B8) | (c8 d8) | (c8 A8) | (A8 G8) | (G8 E8 | G8 A8 | c8 A8) | z16 | z16 | z16 | %40
w: |be\-||ne\- *|di\- *|cta *|tu *||||||
 G8 (A8 | B8 B8 | (c8 A8 | B8 A8 | G8 A6) A2 | A8 c8 | B8 A8) | z16 | z16 | z16 | z16 | (e8 d8) | %52
w: in mu\-|* li-|e\- *||* * ri-|bus, *||||||in *|
 (c8 B8) | (A8 G8) | (A8 B8 | c8) B8 | (A8 G8) | z16 | z16 | z16 | z8 G8 | (E8 G8) | A8 c8 | %63
w: mu\- *|li\- *|e\- *|* ri-|bus, *||||et|be\- *|ne- di-|
 c8 d8 | B8 c8 | B8 A8 | (c8 A8- | A8 G8) | G16- | G16 |] %70
w: ctus fru\-|* ctus|ven- tris|tu\- *||i.||
V:2
 z16 | z16 | z16 | (C8 D8) | (D8 F8 | D8 E8 | C4 C4 F4 F4 | (E4 A6 G2 F2 E2) | D4 D4 E4 E4 | %9
w: |||A\- *|ve, *||* a- ve Ma-|ri\- * * * *|a, a- ve Ma-|
 C4 F8 E4) | F4 F6 E2 E4- | E4 (D8 ^C4) | D8 z8 | z8 D8 | E4 C4 D4 (G4- | G2 F2 E2 D2 C4 D2 E2 | %16
w: ri\- * *|a, a- ve Ma\-|* ri\- *|a|gra-|* ti- a ple\-||
 F8) E4 (A4- | A2 G2 F8 E4) | F8 z8 | z16 | (A8 G4) E4 | F8 E8 | F8 G6 G2 | A8 (G4 E4) | %24
w: * na, ple\-||na;||Do\- * mi-|nus te-|cum, Do- mi-|nus te\- *|
 D4 G8 ^F4 | G4 D4 E8 | z4 (E4 F8) | (E4 F4 G8) | F4 D4 E4 A4- | A4 G4 F8 | (E4 ^F4) G8- | %31
w: cum, Do- mi-|nus te- cum:|be\- *|ne\- * *|di- cta tu, be\-|* ne- di-|cta * tu,|
 G8 z4 G4 | E8 F4 C4 | D8 z4 (D4 | E4) (D8 C4) | B,4 C8 D4 | (E2 F2 G8) F4- | F4 E4 (D8 | %38
w: * be-|ne- di- cta|tu, be\-|* ne\- *|di- cta, be-|ne\- * * di\-|* cta tu,|
 C8) z4 G4 | A4 F4 (G6 F2 | E2 D2 E4 F6 E2 | D4 D4 G,4 G4 | E4 C4 (F4 D4- | D4 G8 F4 | %44
w: * in|mu- li- e\- *||* ri- bus, in|mu- li- e\- *||
 E6 D2 C4 D2 E2 | F4) F4 E8- | E8 z8 | z16 | z8 z4 E4 | F4 D4 G6 F2 | E8 z8 | z4 E4 F4 D4 | %52
w: |* ri- bus,|||in|mu- li- e- ri-|bus,|in mu- li-|
 A2 G2 E2 F2 G2 D2 G4- | G4 F4 E6) D2 | C4 F4 D4 G4 | E12 D4 | D8 z4 D4 | B,4 D4 E8 | C8 F4 D4 | %59
w: e\- * * * * * *|* * * ri-|bus, in mu- li-|e- ri-|bus, et|be- ne- di-|ctus fru- ctus|
 E4 C4 (D4 E4 | F4 E4 D8) | E16 | z4 F4 G4 E4 | A4 F4 z4 F4 | D4 F4 G8- | G4 D4 (D4 E2 F2 | %66
w: ven- tris tu\- *||i,|et be- ne-|di- ctus, et|be- ne- di\-|* ctus fru\- * *|
 G4) E4 F4 G4 | (A2 G2 F8 E4 | D16) | E16 |] %70
w: * ctus ven- tris|tu\- * * *||i.|
V:3
 (G8 A8) | (A8 c8) | (A4 d6 c2 B4) | A4 (c8 B2 A2 | B8) A8 | B2 (c4 B2) c8 | z16 | z4 A4 d4 d4 | %8
w: A\- *|ve, *|a\- * * *|ve, a\- * *|* ve|Ma- ri\- * a.||a- ve Ma-|
 B8 c4 (c4- | c2 _B2 A2 GF G8) | F8 z4 G4 | G4 F4 E8 | D8 z4 (A4 | B4) G4 (A4 B4) | c8 B8 | %15
w: ri- a, a\-||ve, a-|ve Ma- ri-|a gra\-|* ti- a *|ple- na,|
 (c6 B2 A2 G2 F4- | F2 G2 A2 B2 c8- | c16) | F8 z4 (A4 | G4) E4 F4 (G4 | A2 B2 c2 d2 e8) | %21
w: ple\- * * * *|||na: Do\-|* mi- nus te\-||
 A4 (A6 B2 c4- | c2) _B2 A4 G8 | F4 (E6 F2 G2 A2 | B2 c2 d6) d2 c4 | (B4 A4 ^G2 A4 G2) | %26
w: cum, Do\- * *|* mi- nus te-|cum, Do\- * * *|* * * mi- nus|te\- * * * *|
 A8 z4 (A4 | c8) (B4 c4 | d8) c4 A4 | B4 e8 d4 | c4 A4 G8 | z4 c4 (A4 B4 | c4) (A8 G4 | %33
w: cum: be\-|* ne\- *|* di- cta|tu, be- ne-|di- cta tu,|be- ne\- *|* di\- *|
 ^F2) (G4 F2) G8 | z4 (G4 A8) | (G4 E4) F4 D4 | C4 (E4 F2 G2 A2 F2) | G4 c8 B4 | c8 z8 | %39
w: * cta * tu,|be\- *|ne\- * di- cta|tu, be\- * * * *|ne- di- cta|tu,|
 c4 d4 B4 (c4- | c2 B2 A2 G2 F4) F4 | G8 z8 | z16 | G8 A4 B4 | c4 B4 A4 A4 | A4 d4 (c2 B2 A4- | %46
w: in mu- li- e\-|* * * * * ri-|bus,||in mu- li-|e- ri- bus, in|mu- li- e\- * *|
 A4) ^G4 A8 | z8 z4 E4 | F4 D4 (G4 A4- | A4 B8 c4- | c2 B2 A8 d4- | d4) ^c4 d8 | z4 A4 B4 G4 | %53
w: * ri- bus,|in|mu- li- e\- *|||* ri- bus,|in mu- li-|
 (d2 c2 A2 B2 c6) B2 | A4 d4 B4 e4 | (c4 B2 A2 G2 ^F2 G4- | G4) ^F4 G8 | z4 G4 E4 G4 | A8 F8 | %59
w: e\- * * * * ri-|bus, in mu- li-|e\- * * * * *|* ri- bus,|et be- ne-|di- ctus|
 c4 A4 B4 G4 | (A2 B2 c8 B4) | c8 z4 c4 | A4 c4 (e2 d2 c2 B2 | A16) | (B4 A4) (G4 E2 F2 | %65
w: fru- ctus ven- tris|tu\- * * *|i, et|be- ne- di\- * * *||ctus * fru\- * *|
 G2 A2 B2 c2 d8) | e8 d8 | c12 (c4- | c4 B2 A2 B8) | c16 |] %70
w: |ctus ven-|tris tu\-||i.|
V:4
 z16 | z8 (C,8 | D,8) (D,8 | F,8 D,8 | G,4) (D,6 E,2 F,2 D,2) | G,8 C,4 C,4 | %6
w: |A\-|* ve||* Ma- * * *|ri- a, a-|
 F,4 F,4 (D,2 E,2 F,2 G,2 | A,8) F,4 D,4 | G,4 G,4 (E,8 | F,8) C,8 | z4 F,,4 C,4 C,4 | A,,8 A,,8 | %12
w: ve Ma- ri\- * * *|* a, a-|ve Ma- ri\-|* a,|a- ve Ma-|ri- a,|
 z4 (D,4 E,4) C,4 | (D,4 E,4 F,4 D,4) | A,8 G,4 G,4 | E,4 C,4 (F,4 D,4- | %16
w: gra\- * ti-|a * * *|ple- na, gra-|ti- a ple\- *|
 D,2 E,2 F,2 G,2 A,2 G,2 F,2 E,2 | F,8) C,8 | z4 (D,4 C,4) A,,4 | C,8 (D,4 E,4 | %20
w: |* na:|Do\- * mi-|nus te\- *|
 F,2 G,2 A,2 B,2 C4) C,4 | (D,2 E,2 F,2 G,2 A,6) G,2 | F,4 (F,8 E,4) | F,4 (C,6 D,2 E,2 F,2 | %24
w: * * * * * cum,|Do\- * * * * mi-|nus te\- *|cum, Do\- * * *|
 G,4) G,,4 D,8 | (G,6 F,2 E,8) | A,,16 | z16 | z16 | z16 | z8 z4 G,4 | E,8 F,4 G,4 | %32
w: * mi- nus|te\- * *|cum:||||be-|ne- di- cta|
 (A,6 G,2 F,4 E,4 | D,8) z8 | z16 | z16 | z16 | z8 z4 G,4 | A,4 F,4 (G,4 E,4 | %39
w: tu, * * *|||||in|mu- li- e\- *|
 F,4 E,2 D,2 E,6) D,2 | C,8 z8 | z16 | z16 | z8 D,8 | E,4 E,4 (F,4 D,4- | %45
w: * * * * ri-|bus,|||in|mu- li- e\- *|
 D,2 E,2 F,2 G,2 A,4) A,,4 | E,8 z4 A,,4 | B,,4 G,,4 (C,6 B,,2 | A,,4 B,,8 C,4 | D,8 E,6 D,2 | %50
w: * * * * * ri-|bus, in|mu- li- e\- *|||
 C,6 D,E, F,4) D,4 | A,8 z8 | z16 | z4 D,4 E,4 C,4 | F,4 D,4 G,4 E,4 | A,4 A,,4 (E,2 D,2 B,,2 C,2 | %56
w: * * * * ri-|bus,||in mu- li-|e- ri- bus, in|mu- li- e\- * * *|
 D,6) D,2 G,,8 | z8 z4 C,4 | A,,4 C,4 D,8 | C,8 G,4 E,4 | D,4 C,4 G,8 | C,4 (C,6 D,2 E,2 C,2 | %62
w: * ri- bus,|et|be- ne- di-|ctus fru- ctus|ven- tris tu-|i, tu\- * * *|
 F,8) C,8 | z4 F,4 D,4 F,4 | G,4 F,4 (E,4 C,2 D,2 | E,2 F,2 G,8) F,4 | E,4 C,4 D,4 E,4 | %67
w: * i,|et be- ne-|di- ctus fru\- * *|* * * ctus|ven- tris, fru- ctus|
 F,8 (C,2 D,2 E,2 F,2 | G,8) G,,8 | C,16 |] %70
w: ven- tris * * *|* tu-|i.|

